icons/solid/mail.svg

<svg width="24" height="24" viewBox="0 0 24 24" fill="none" xmlns="http://www.w3.org/2000/svg">
<path fill-rule="evenodd" clip-rule="evenodd" d="M5 20C3.34315 20 2 18.6569 2 17V7C2 5.34315 3.34315 4 5 4H19C20.6569 4 22 5.34315 22 7V17C22 18.6569 20.6569 20 19 20L5 20ZM7.62469 8.21913C7.19343 7.87412 6.56414 7.94404 6.21913 8.37531C5.87412 8.80657 5.94404 9.43586 6.3753 9.78087L10.1259 12.7814C11.2216 13.6579 12.7784 13.6579 13.8741 12.7814L17.6247 9.78087C18.056 9.43586 18.1259 8.80657 17.7809 8.37531C17.4359 7.94404 16.8066 7.87412 16.3753 8.21913L12.6247 11.2196C12.2595 11.5118 11.7405 11.5118 11.3753 11.2196L7.62469 8.21913Z" fill="currentColor"/>
</svg>

<svg width="24" height="24" fill="none" xmlns="http://www.w3.org/2000/svg"><path fill-rule="evenodd" clip-rule="evenodd" d="M5 20a3 3 0 01-3-3V7a3 3 0 013-3h14a3 3 0 013 3v10a3 3 0 01-3 3H5zM7.625 8.22a1 1 0 10-1.25 1.56l3.75 3.001a3 3 0 003.75 0l3.75-3a1 1 0 10-1.25-1.562l-3.75 3a1 1 0 01-1.25 0l-3.75-3z" fill="currentColor"/></svg>
